X:34
T:Castlekelly
Z: id:dc-reel-33
M:C
L:1/8
K:A Dorian
A2cA A2cA|GBEF G2EG|A2cA GAcd|egdB cAA2:|!
agec d2ed|cAGE G3e|agec d2cd|eaab a2ba|!
gedc d2ed|cAGE G2EG|A2cA GAcd|egdB cAA2:|!

